images/spinner-track-56.svg

<svg height="56" viewBox="0 0 56 56" width="56" xmlns="http://www.w3.org/2000/svg"><path d="m28 54c14.3594035 0 26-11.6405965 26-26s-11.6405965-26-26-26-26 11.6405965-26 26 11.6405965 26 26 26zm0 2c-15.463973 0-28-12.536027-28-28s12.536027-28 28-28 28 12.536027 28 28-12.536027 28-28 28z"/></svg>

<?xml version="1.0" encoding="UTF-8"?>
<svg width="56px" height="56px" viewBox="0 0 56 56" version="1.1" xmlns="http://www.w3.org/2000/svg" xmlns:xlink="http://www.w3.org/1999/xlink">
    <!-- Generator: Sketch 53 (72520) - https://sketchapp.com -->
    <title>Interderminate Track - 56</title>
    <desc>Created with Sketch.</desc>
    <g id="Interderminate-Track---56" stroke="none" stroke-width="1" fill="none" fill-rule="evenodd">
        <path d="M28,54 C42.3594035,54 54,42.3594035 54,28 C54,13.6405965 42.3594035,2 28,2 C13.6405965,2 2,13.6405965 2,28 C2,42.3594035 13.6405965,54 28,54 Z M28,56 C12.536027,56 0,43.463973 0,28 C0,12.536027 12.536027,0 28,0 C43.463973,0 56,12.536027 56,28 C56,43.463973 43.463973,56 28,56 Z" id="Oval" fill="#000000" fill-rule="nonzero"></path>
    </g>
</svg>
